svgs/personal_safety.svg

<svg width="192" height="192" viewBox="0 0 192 192" fill="none" xmlns="http://www.w3.org/2000/svg"><path d="M78 64.823 56.503 52.412C47.893 47.44 36.885 50.39 31.914 59c-4.97 8.61-2.02 19.618 6.589 24.588L60 96l-21.497 12.412c-8.61 4.97-11.56 15.979-6.589 24.588 4.97 8.609 15.98 11.559 24.589 6.589L78 127.177m0-62.354V40c0-9.941 8.059-18 18-18s18 8.059 18 18v24.823m-36 0 18 10.392m0 0 18 10.393L132 96M96 75.215l18-10.392m-18 51.962 18-10.393L132 96m-36 20.785-18 10.392m18-10.392 18 10.392m-36 0V152c0 9.941 8.059 18 18 18s18-8.059 18-18v-24.823m0 0 21.497 12.411c8.61 4.971 19.618 2.021 24.589-6.588 4.97-8.609 2.021-19.618-6.589-24.588L132 96m-18-31.177 21.497-12.411c8.61-4.97 19.618-2.021 24.589 6.588 4.97 8.61 2.021 19.618-6.589 24.588L132 96" stroke="#000" stroke-width="12"/></svg>

<?xml version="1.0" encoding="UTF-8" standalone="no"?><svg xmlns:android="http://schemas.android.com/apk/res/android" height="192" width="192" xmlns="http://www.w3.org/2000/svg">
  <path d="M78,64.823L56.503,52.411C47.893,47.441 36.885,50.391 31.914,59C26.944,67.609 29.893,78.618 38.503,83.589L60,96L38.503,108.412C29.893,113.382 26.944,124.391 31.914,133C36.885,141.609 47.893,144.559 56.503,139.589L78,127.177M78,64.823V40C78,30.059 86.059,22 96,22C105.941,22 114,30.059 114,40V64.823M78,64.823L96,75.215M96,75.215L114,85.608L132,96M96,75.215L114,64.823M96,116.785L114,106.392L132,96M96,116.785L78,127.177M96,116.785L114,127.177M78,127.177V152C78,161.941 86.059,170 96,170C105.941,170 114,161.941 114,152V127.177M114,127.177L135.497,139.588C144.107,144.559 155.115,141.609 160.086,133C165.056,124.391 162.107,113.382 153.497,108.412L132,96M114,64.823L135.497,52.412C144.107,47.441 155.115,50.391 160.086,59C165.056,67.609 162.107,78.618 153.497,83.589L132,96" fill="#000000" fill-opacity="0.0" stroke="#000000" stroke-width="12"/>
</svg>
